icons/plexis/48/i2prouter.svg

<svg viewBox="0 0 48 48" xmlns="http://www.w3.org/2000/svg" xmlns:xlink="http://www.w3.org/1999/xlink">
  <linearGradient id="a" gradientTransform="matrix(0 -1 1 0 -.0000015 47.999998)" gradientUnits="userSpaceOnUse" x1="1" x2="47">
    <stop offset="0" stop-color="#e7e7e7"/>
    <stop offset="1" stop-color="#f1f1f1"/>
  </linearGradient>
  <path d="m47 24c0 22.703-.297 23-23 23-22.703 0-23-.297-23-23 0-22.703.297-23 23-23 22.703 0 23 .297 23 23z" fill="url(#a)"/>
  <g transform="scale(3.543307)">
    <path d="m4.25 3.669a.564.564 0 0 0-.581.564.564.564 0 0 0  .581.565.564.564 0 0 0  .548-.565.564.564 0 0 0-.548-.564m.548.564a.564.564 0 0 0 1.129 0 .564.564 0 1 0-1.129 0zm1.129 0a .564.564 0 0 0 1.129 0 .564.564 0 1 0-1.129 0zm1.129 0a .564.564 0 0 0 1.129 0 .564.564 0 1 0-1.129 0zm1.129 0a .564.564 0 0 0 1.129 0 .564.564 0 1 0-1.129 0zm1.129 0a .564.564 0 0 0 1.129 0 .564.564 0 1 0-1.129 0zm-5.064.565a.564.564 0 0 0-.581.564.564.564 0 0 0  .581.565.564.564 0 0 0  .548-.565.564.564 0 0 0-.548-.564m.548.564a.564.564 0 0 0 1.129 0 .564.564 0 1 0-1.129 0zm1.129 0a .564.564 0 0 0 1.129 0 .564.564 0 1 0-1.129 0zm1.129 0a .564.564 0 0 0 1.129 0 .564.564 0 1 0-1.129 0zm1.129 0a .564.564 0 0 0 1.129 0 .564.564 0 1 0-1.129 0zm1.129 0a .564.564 0 0 0 1.129 0 .564.564 0 1 0-1.129 0zm-5.064.565a.564.564 0 0 0-.581.564.564.564 0 0 0  .581.569.564.564 0 0 0  .548-.569.564.564 0 0 0-.548-.564m.548.564a.564.564 0 0 0 1.129 0 .564.564 0 1 0-1.129 0zm1.129 0a .564.564 0 0 0 1.129 0 .564.564 0 1 0-1.129 0zm1.129 0a .564.564 0 0 0 1.129 0 .564.564 0 1 0-1.129 0zm1.129 0a .564.564 0 0 0  .581.564.564.564 0 0 0  .548-.564.564.564 0 1 0-1.129 0zm1.129 0a .564.564 0 0 0  .581.564.564.564 0 0 0  .548-.564.564.564 0 1 0-1.129 0zm .581.564a.564.564 0 0 0-.582.564.564.564 0 0 0-.548-.559.564.564 0 0 0-.581.56.564.564 0 0 0  .548.564.564.564 0 0 0  .581-.564.564.564 0 0 0  1.129 0 .564.564 0 0 0-.548-.56m-1.162 1.129a.564.564 0 0 0-.548.564.564.564 0 0 0  1.129 0 .564.564 0 0 0-.581-.564zm.581.564a.564.564 0 0 0 1.129 0 .564.564 0 1 0-1.129 0zm-1.129 0a .564.564 0 1 0-1.129 0 .564.564 0 0 0  1.129 0zm-1.129 0a .564.564 0 1 0-1.129 0 .564.564 0 0 0  1.129 0zm-1.129 0a .564.564 0 1 0-1.129 0 .564.564 0 0 0  1.129 0zm-1.129 0a .564.564 0 0 0-.547-.569.564.564 0 0 0-.581.565.564.564 0 0 0  .581.564.564.564 0 0 0  .548-.564m-.548.564a.564.564 0 0 0-.581.564.564.564 0 0 0  1.129 0 .564.564 0 0 0-.548-.564m.548.564a.564.564 0 0 0 1.129 0 .564.564 0 1 0-1.129 0zm1.129 0a .564.564 0 0 0 1.129 0 .564.564 0 1 0-1.129 0zm1.129 0a .564.564 0 0 0 1.129 0 .564.564 0 1 0-1.129 0zm1.129 0a .564.564 0 0 0 1.129 0 .564.564 0 1 0-1.129 0zm1.129 0a .564.564 0 0 0 1.129 0 .564.564 0 1 0-1.129 0zm-5.064-1.693a.564.564 0 0 0  .548-.564.564.564 0 0 0-.548-.56.564.564 0 0 0-.581.56.564.564 0 0 0  .581.564m.548-.564a.564.564 0 0 0 1.129 0 .564.564 0 1 0-1.129 0zm1.129 0a .564.564 0 0 0 1.129 0 .564.564 0 1 0-1.129 0zm1.129 0a .564.564 0 0 0 1.129 0 .564.564 0 1 0-1.129 0z" opacity=".1"/>
    <path d="m-51-.5a1.5 1.5 0 1 1-3 0 1.5 1.5 0 1 1  3 0z" fill="#e76a6a" transform="matrix(.37629631 0 0 .37629631 23.706667 4.1392594)"/>
    <path d="m-51-.5a1.5 1.5 0 1 1-3 0 1.5 1.5 0 1 1  3 0z" fill="#e76a6a" transform="matrix(.37629631 0 0 .37629631 23.706667 5.2681483)"/>
    <path d="m-51-.5a1.5 1.5 0 1 1-3 0 1.5 1.5 0 1 1  3 0z" fill="#e76a6a" transform="matrix(.37629631 0 0 .37629631 23.706667 7.5259261)"/>
    <path d="m-51-.5a1.5 1.5 0 1 1-3 0 1.5 1.5 0 1 1  3 0z" fill="#e76a6a" transform="matrix(.37629631 0 0 .37629631 23.706667 6.3970372)"/>
    <path d="m-51-.5a1.5 1.5 0 1 1-3 0 1.5 1.5 0 1 1  3 0z" fill="#e76a6a" transform="matrix(.37629631 0 0 .37629631 23.706667 8.654815)"/>
    <path d="m-51-.5a1.5 1.5 0 1 1-3 0 1.5 1.5 0 1 1  3 0z" fill="#e76a6a" transform="matrix(.37629631 0 0 .37629631 23.706667 9.7837039)"/>
    <path d="m-51-.5a1.5 1.5 0 1 1-3 0 1.5 1.5 0 1 1  3 0z" fill="#e76a6a" transform="matrix(.37629631 0 0 .37629631 24.835556 4.1392594)"/>
    <path d="m-51-.5a1.5 1.5 0 1 1-3 0 1.5 1.5 0 1 1  3 0z" fill="#e76a6a" transform="matrix(.37629631 0 0 .37629631 24.835556 5.2681483)"/>
    <path d="m-51-.5a1.5 1.5 0 1 1-3 0 1.5 1.5 0 1 1  3 0z" fill="#e76a6a" transform="matrix(.37629631 0 0 .37629631 24.835556 7.5259261)"/>
    <path d="m-51-.5a1.5 1.5 0 1 1-3 0 1.5 1.5 0 1 1  3 0z" fill="#e76a6a" transform="matrix(.37629631 0 0 .37629631 24.835556 6.3970372)"/>
    <path d="m-51-.5a1.5 1.5 0 1 1-3 0 1.5 1.5 0 1 1  3 0z" fill="#e76a6a" transform="matrix(.37629631 0 0 .37629631 24.835556 8.654815)"/>
    <path d="m-51-.5a1.5 1.5 0 1 1-3 0 1.5 1.5 0 1 1  3 0z" fill="#e76a6a" transform="matrix(.37629631 0 0 .37629631 24.835556 9.7837039)"/>
    <path d="m-51-.5a1.5 1.5 0 1 1-3 0 1.5 1.5 0 1 1  3 0z" fill="#e3c72e" transform="matrix(.37629631 0 0 .37629631 25.964445 4.1392594)"/>
    <path d="m-51-.5a1.5 1.5 0 1 1-3 0 1.5 1.5 0 1 1  3 0z" fill="#e3c72e" transform="matrix(.37629631 0 0 .37629631 25.964445 5.2681483)"/>
    <path d="m-51-.5a1.5 1.5 0 1 1-3 0 1.5 1.5 0 1 1  3 0z" fill="#e3c72e" transform="matrix(.37629631 0 0 .37629631 25.964445 7.5259261)"/>
    <path d="m-51-.5a1.5 1.5 0 1 1-3 0 1.5 1.5 0 1 1  3 0z" fill="#e3c72e" transform="matrix(.37629631 0 0 .37629631 25.964445 6.3970372)"/>
    <path d="m-51-.5a1.5 1.5 0 1 1-3 0 1.5 1.5 0 1 1  3 0z" fill="#e3c72e" transform="matrix(.37629631 0 0 .37629631 25.964445 8.654815)"/>
    <path d="m-51-.5a1.5 1.5 0 1 1-3 0 1.5 1.5 0 1 1  3 0z" fill="#e3c72e" transform="matrix(.37629631 0 0 .37629631 25.964445 9.7837039)"/>
    <path d="m-51-.5a1.5 1.5 0 1 1-3 0 1.5 1.5 0 1 1  3 0z" fill="#e3c72e" transform="matrix(.37629631 0 0 .37629631 27.093334 4.1392594)"/>
    <path d="m-51-.5a1.5 1.5 0 1 1-3 0 1.5 1.5 0 1 1  3 0z" fill="#e3c72e" transform="matrix(.37629631 0 0 .37629631 27.093334 5.2681483)"/>
    <path d="m-51-.5a1.5 1.5 0 1 1-3 0 1.5 1.5 0 1 1  3 0z" fill="#e3c72e" transform="matrix(.37629631 0 0 .37629631 27.093334 7.5259261)"/>
    <path d="m-51-.5a1.5 1.5 0 1 1-3 0 1.5 1.5 0 1 1  3 0z" fill="#e3c72e" transform="matrix(.37629631 0 0 .37629631 27.093334 6.3970372)"/>
    <path d="m-51-.5a1.5 1.5 0 1 1-3 0 1.5 1.5 0 1 1  3 0z" fill="#e3c72e" transform="matrix(.37629631 0 0 .37629631 27.093334 8.654815)"/>
    <path d="m-51-.5a1.5 1.5 0 1 1-3 0 1.5 1.5 0 1 1  3 0z" fill="#e3c72e" transform="matrix(.37629631 0 0 .37629631 27.093334 9.7837039)"/>
    <path d="m-51-.5a1.5 1.5 0 1 1-3 0 1.5 1.5 0 1 1  3 0z" fill="#5bc548" transform="matrix(.37629631 0 0 .37629631 28.222223 4.1392594)"/>
    <path d="m-51-.5a1.5 1.5 0 1 1-3 0 1.5 1.5 0 1 1  3 0z" fill="#5bc548" transform="matrix(.37629631 0 0 .37629631 28.222223 5.2681483)"/>
    <path d="m-51-.5a1.5 1.5 0 1 1-3 0 1.5 1.5 0 1 1  3 0z" fill="#5bc548" transform="matrix(.37629631 0 0 .37629631 28.222223 7.5259261)"/>
    <path d="m-51-.5a1.5 1.5 0 1 1-3 0 1.5 1.5 0 1 1  3 0z" fill="#5bc548" transform="matrix(.37629631 0 0 .37629631 28.222223 6.3970372)"/>
    <path d="m-51-.5a1.5 1.5 0 1 1-3 0 1.5 1.5 0 1 1  3 0z" fill="#5bc548" transform="matrix(.37629631 0 0 .37629631 28.222223 8.654815)"/>
    <path d="m-51-.5a1.5 1.5 0 1 1-3 0 1.5 1.5 0 1 1  3 0z" fill="#5bc548" transform="matrix(.37629631 0 0 .37629631 28.222223 9.7837039)"/>
    <path d="m-51-.5a1.5 1.5 0 1 1-3 0 1.5 1.5 0 1 1  3 0z" fill="#5bc548" transform="matrix(.37629631 0 0 .37629631 29.351112 4.1392594)"/>
    <path d="m-51-.5a1.5 1.5 0 1 1-3 0 1.5 1.5 0 1 1  3 0z" fill="#5bc548" transform="matrix(.37629631 0 0 .37629631 29.351112 5.2681483)"/>
    <path d="m-51-.5a1.5 1.5 0 1 1-3 0 1.5 1.5 0 1 1  3 0z" fill="#5bc548" transform="matrix(.37629631 0 0 .37629631 29.351112 7.5259261)"/>
    <path d="m-51-.5a1.5 1.5 0 1 1-3 0 1.5 1.5 0 1 1  3 0z" fill="#5bc548" transform="matrix(.37629631 0 0 .37629631 29.351112 6.3970372)"/>
    <path d="m-51-.5a1.5 1.5 0 1 1-3 0 1.5 1.5 0 1 1  3 0z" fill="#5bc548" transform="matrix(.37629631 0 0 .37629631 29.351112 8.654815)"/>
    <path d="m-51-.5a1.5 1.5 0 1 1-3 0 1.5 1.5 0 1 1  3 0z" fill="#5bc548" transform="matrix(.37629631 0 0 .37629631 29.351112 9.7837039)"/>
  </g>
</svg>

<svg xmlns="http://www.w3.org/2000/svg" viewBox="0 0 48 48">
 <defs>
  <linearGradient id="linearGradient3764" x1="1" x2="47" gradientUnits="userSpaceOnUse" gradientTransform="matrix(0,-1,1,0,-1.5e-6,47.999998)">
   <stop style="stop-color:#e7e7e7;stop-opacity:1"/>
   <stop offset="1" style="stop-color:#f1f1f1;stop-opacity:1"/>
  </linearGradient>
 </defs>
 <g>
  
  
  
 </g>
 <g>
  <path d="m 47,24 C 47,46.703 46.703,47 24,47 1.297,47 1,46.703 1,24 1,1.297 1.297,1 24,1 46.703,1 47,1.297 47,24 z" style="fill:url(#linearGradient3764);fill-opacity:1"/>
 </g>
 <g>
  
 </g>
 <g transform="scale(3.543307,3.543307)">
  <path d="M 4.25 3.669 A 0.564 0.564 0 0 0 3.669 4.233 0.564 0.564 0 0 0 4.25 4.798 0.564 0.564 0 0 0 4.798 4.233 0.564 0.564 0 0 0 4.25 3.669 m 0.548 0.564 a 0.564 0.564 0 0 0 1.129 0 0.564 0.564 0 1 0 -1.129 0 z m 1.129 0 a 0.564 0.564 0 0 0 1.129 0 0.564 0.564 0 1 0 -1.129 0 z m 1.129 0 a 0.564 0.564 0 0 0 1.129 0 0.564 0.564 0 1 0 -1.129 0 z m 1.129 0 a 0.564 0.564 0 0 0 1.129 0 0.564 0.564 0 1 0 -1.129 0 z m 1.129 0 a 0.564 0.564 0 0 0 1.129 0 0.564 0.564 0 1 0 -1.129 0 z M 4.25 4.798 A 0.564 0.564 0 0 0 3.669 5.362 0.564 0.564 0 0 0 4.25 5.927 0.564 0.564 0 0 0 4.798 5.362 0.564 0.564 0 0 0 4.25 4.798 m 0.548 0.564 a 0.564 0.564 0 0 0 1.129 0 0.564 0.564 0 1 0 -1.129 0 z m 1.129 0 a 0.564 0.564 0 0 0 1.129 0 0.564 0.564 0 1 0 -1.129 0 z m 1.129 0 a 0.564 0.564 0 0 0 1.129 0 0.564 0.564 0 1 0 -1.129 0 z m 1.129 0 a 0.564 0.564 0 0 0 1.129 0 0.564 0.564 0 1 0 -1.129 0 z m 1.129 0 a 0.564 0.564 0 0 0 1.129 0 0.564 0.564 0 1 0 -1.129 0 z M 4.25 5.927 A 0.564 0.564 0 0 0 3.669 6.491 0.564 0.564 0 0 0 4.25 7.06 0.564 0.564 0 0 0 4.798 6.491 0.564 0.564 0 0 0 4.25 5.927 m 0.548 0.564 a 0.564 0.564 0 0 0 1.129 0 0.564 0.564 0 1 0 -1.129 0 z m 1.129 0 a 0.564 0.564 0 0 0 1.129 0 0.564 0.564 0 1 0 -1.129 0 z m 1.129 0 a 0.564 0.564 0 0 0 1.129 0 0.564 0.564 0 1 0 -1.129 0 z m 1.129 0 a 0.564 0.564 0 0 0 0.581 0.564 0.564 0.564 0 0 0 0.548 -0.564 0.564 0.564 0 1 0 -1.129 0 z m 1.129 0 a 0.564 0.564 0 0 0 0.581 0.564 0.564 0.564 0 0 0 0.548 -0.564 0.564 0.564 0 1 0 -1.129 0 z m 0.581 0.564 A 0.564 0.564 0 0 0 9.313 7.619 0.564 0.564 0 0 0 8.765 7.06 0.564 0.564 0 0 0 8.184 7.62 0.564 0.564 0 0 0 8.732 8.184 0.564 0.564 0 0 0 9.313 7.62 0.564 0.564 0 0 0 10.442 7.62 0.564 0.564 0 0 0 9.894 7.06 m -1.162 1.129 a 0.564 0.564 0 0 0 -0.548 0.564 0.564 0.564 0 0 0 1.129 0 0.564 0.564 0 0 0 -0.581 -0.564 z m 0.581 0.564 a 0.564 0.564 0 0 0 1.129 0 0.564 0.564 0 1 0 -1.129 0 z m -1.129 0 a 0.564 0.564 0 1 0 -1.129 0 0.564 0.564 0 0 0 1.129 0 z m -1.129 0 a 0.564 0.564 0 1 0 -1.129 0 0.564 0.564 0 0 0 1.129 0 z m -1.129 0 a 0.564 0.564 0 1 0 -1.129 0 0.564 0.564 0 0 0 1.129 0 z m -1.129 0 A 0.564 0.564 0 0 0 4.25 8.184 0.564 0.564 0 0 0 3.669 8.749 0.564 0.564 0 0 0 4.25 9.313 0.564 0.564 0 0 0 4.798 8.749 M 4.25 9.313 a 0.564 0.564 0 0 0 -0.581 0.564 0.564 0.564 0 0 0 1.129 0 A 0.564 0.564 0 0 0 4.25 9.313 m 0.548 0.564 a 0.564 0.564 0 0 0 1.129 0 0.564 0.564 0 1 0 -1.129 0 z m 1.129 0 a 0.564 0.564 0 0 0 1.129 0 0.564 0.564 0 1 0 -1.129 0 z m 1.129 0 a 0.564 0.564 0 0 0 1.129 0 0.564 0.564 0 1 0 -1.129 0 z m 1.129 0 a 0.564 0.564 0 0 0 1.129 0 0.564 0.564 0 1 0 -1.129 0 z m 1.129 0 a 0.564 0.564 0 0 0 1.129 0 0.564 0.564 0 1 0 -1.129 0 z M 4.25 8.184 A 0.564 0.564 0 0 0 4.798 7.62 0.564 0.564 0 0 0 4.25 7.06 0.564 0.564 0 0 0 3.669 7.62 0.564 0.564 0 0 0 4.25 8.184 M 4.798 7.62 a 0.564 0.564 0 0 0 1.129 0 0.564 0.564 0 1 0 -1.129 0 z m 1.129 0 a 0.564 0.564 0 0 0 1.129 0 0.564 0.564 0 1 0 -1.129 0 z m 1.129 0 a 0.564 0.564 0 0 0 1.129 0 0.564 0.564 0 1 0 -1.129 0 z" style="fill:#000;opacity:0.1;fill-opacity:1;stroke:none"/>
  <path transform="matrix(0.37629631,0,0,0.37629631,23.706667,4.1392594)" d="m -51 -0.5 a 1.5 1.5 0 1 1 -3 0 1.5 1.5 0 1 1 3 0 z" style="fill:#e76a6a;fill-opacity:1;stroke:none"/>
  <path d="m -51 -0.5 a 1.5 1.5 0 1 1 -3 0 1.5 1.5 0 1 1 3 0 z" transform="matrix(0.37629631,0,0,0.37629631,23.706667,5.2681483)" style="fill:#e76a6a;fill-opacity:1;stroke:none"/>
  <path transform="matrix(0.37629631,0,0,0.37629631,23.706667,7.5259261)" d="m -51 -0.5 a 1.5 1.5 0 1 1 -3 0 1.5 1.5 0 1 1 3 0 z" style="fill:#e76a6a;fill-opacity:1;stroke:none"/>
  <path d="m -51 -0.5 a 1.5 1.5 0 1 1 -3 0 1.5 1.5 0 1 1 3 0 z" transform="matrix(0.37629631,0,0,0.37629631,23.706667,6.3970372)" style="fill:#e76a6a;fill-opacity:1;stroke:none"/>
  <path transform="matrix(0.37629631,0,0,0.37629631,23.706667,8.654815)" d="m -51 -0.5 a 1.5 1.5 0 1 1 -3 0 1.5 1.5 0 1 1 3 0 z" style="fill:#e76a6a;fill-opacity:1;stroke:none"/>
  <path d="m -51 -0.5 a 1.5 1.5 0 1 1 -3 0 1.5 1.5 0 1 1 3 0 z" transform="matrix(0.37629631,0,0,0.37629631,23.706667,9.7837039)" style="fill:#e76a6a;fill-opacity:1;stroke:none"/>
  <path d="m -51 -0.5 a 1.5 1.5 0 1 1 -3 0 1.5 1.5 0 1 1 3 0 z" transform="matrix(0.37629631,0,0,0.37629631,24.835556,4.1392594)" style="fill:#e76a6a;fill-opacity:1;stroke:none"/>
  <path transform="matrix(0.37629631,0,0,0.37629631,24.835556,5.2681483)" d="m -51 -0.5 a 1.5 1.5 0 1 1 -3 0 1.5 1.5 0 1 1 3 0 z" style="fill:#e76a6a;fill-opacity:1;stroke:none"/>
  <path d="m -51 -0.5 a 1.5 1.5 0 1 1 -3 0 1.5 1.5 0 1 1 3 0 z" transform="matrix(0.37629631,0,0,0.37629631,24.835556,7.5259261)" style="fill:#e76a6a;fill-opacity:1;stroke:none"/>
  <path transform="matrix(0.37629631,0,0,0.37629631,24.835556,6.3970372)" d="m -51 -0.5 a 1.5 1.5 0 1 1 -3 0 1.5 1.5 0 1 1 3 0 z" style="fill:#e76a6a;fill-opacity:1;stroke:none"/>
  <path d="m -51 -0.5 a 1.5 1.5 0 1 1 -3 0 1.5 1.5 0 1 1 3 0 z" transform="matrix(0.37629631,0,0,0.37629631,24.835556,8.654815)" style="fill:#e76a6a;fill-opacity:1;stroke:none"/>
  <path transform="matrix(0.37629631,0,0,0.37629631,24.835556,9.7837039)" d="m -51 -0.5 a 1.5 1.5 0 1 1 -3 0 1.5 1.5 0 1 1 3 0 z" style="fill:#e76a6a;fill-opacity:1;stroke:none"/>
  <path d="m -51 -0.5 a 1.5 1.5 0 1 1 -3 0 1.5 1.5 0 1 1 3 0 z" transform="matrix(0.37629631,0,0,0.37629631,25.964445,4.1392594)" style="fill:#e3c72e;fill-opacity:1;stroke:none"/>
  <path transform="matrix(0.37629631,0,0,0.37629631,25.964445,5.2681483)" d="m -51 -0.5 a 1.5 1.5 0 1 1 -3 0 1.5 1.5 0 1 1 3 0 z" style="fill:#e3c72e;fill-opacity:1;stroke:none"/>
  <path d="m -51 -0.5 a 1.5 1.5 0 1 1 -3 0 1.5 1.5 0 1 1 3 0 z" transform="matrix(0.37629631,0,0,0.37629631,25.964445,7.5259261)" style="fill:#e3c72e;fill-opacity:1;stroke:none"/>
  <path transform="matrix(0.37629631,0,0,0.37629631,25.964445,6.3970372)" d="m -51 -0.5 a 1.5 1.5 0 1 1 -3 0 1.5 1.5 0 1 1 3 0 z" style="fill:#e3c72e;fill-opacity:1;stroke:none"/>
  <path d="m -51 -0.5 a 1.5 1.5 0 1 1 -3 0 1.5 1.5 0 1 1 3 0 z" transform="matrix(0.37629631,0,0,0.37629631,25.964445,8.654815)" style="fill:#e3c72e;fill-opacity:1;stroke:none"/>
  <path transform="matrix(0.37629631,0,0,0.37629631,25.964445,9.7837039)" d="m -51 -0.5 a 1.5 1.5 0 1 1 -3 0 1.5 1.5 0 1 1 3 0 z" style="fill:#e3c72e;fill-opacity:1;stroke:none"/>
  <path transform="matrix(0.37629631,0,0,0.37629631,27.093334,4.1392594)" d="m -51 -0.5 a 1.5 1.5 0 1 1 -3 0 1.5 1.5 0 1 1 3 0 z" style="fill:#e3c72e;fill-opacity:1;stroke:none"/>
  <path d="m -51 -0.5 a 1.5 1.5 0 1 1 -3 0 1.5 1.5 0 1 1 3 0 z" transform="matrix(0.37629631,0,0,0.37629631,27.093334,5.2681483)" style="fill:#e3c72e;fill-opacity:1;stroke:none"/>
  <path transform="matrix(0.37629631,0,0,0.37629631,27.093334,7.5259261)" d="m -51 -0.5 a 1.5 1.5 0 1 1 -3 0 1.5 1.5 0 1 1 3 0 z" style="fill:#e3c72e;fill-opacity:1;stroke:none"/>
  <path d="m -51 -0.5 a 1.5 1.5 0 1 1 -3 0 1.5 1.5 0 1 1 3 0 z" transform="matrix(0.37629631,0,0,0.37629631,27.093334,6.3970372)" style="fill:#e3c72e;fill-opacity:1;stroke:none"/>
  <path transform="matrix(0.37629631,0,0,0.37629631,27.093334,8.654815)" d="m -51 -0.5 a 1.5 1.5 0 1 1 -3 0 1.5 1.5 0 1 1 3 0 z" style="fill:#e3c72e;fill-opacity:1;stroke:none"/>
  <path d="m -51 -0.5 a 1.5 1.5 0 1 1 -3 0 1.5 1.5 0 1 1 3 0 z" transform="matrix(0.37629631,0,0,0.37629631,27.093334,9.7837039)" style="fill:#e3c72e;fill-opacity:1;stroke:none"/>
  <path transform="matrix(0.37629631,0,0,0.37629631,28.222223,4.1392594)" d="m -51 -0.5 a 1.5 1.5 0 1 1 -3 0 1.5 1.5 0 1 1 3 0 z" style="fill:#5bc548;fill-opacity:1;stroke:none"/>
  <path d="m -51 -0.5 a 1.5 1.5 0 1 1 -3 0 1.5 1.5 0 1 1 3 0 z" transform="matrix(0.37629631,0,0,0.37629631,28.222223,5.2681483)" style="fill:#5bc548;fill-opacity:1;stroke:none"/>
  <path transform="matrix(0.37629631,0,0,0.37629631,28.222223,7.5259261)" d="m -51 -0.5 a 1.5 1.5 0 1 1 -3 0 1.5 1.5 0 1 1 3 0 z" style="fill:#5bc548;fill-opacity:1;stroke:none"/>
  <path d="m -51 -0.5 a 1.5 1.5 0 1 1 -3 0 1.5 1.5 0 1 1 3 0 z" transform="matrix(0.37629631,0,0,0.37629631,28.222223,6.3970372)" style="fill:#5bc548;fill-opacity:1;stroke:none"/>
  <path transform="matrix(0.37629631,0,0,0.37629631,28.222223,8.654815)" d="m -51 -0.5 a 1.5 1.5 0 1 1 -3 0 1.5 1.5 0 1 1 3 0 z" style="fill:#5bc548;fill-opacity:1;stroke:none"/>
  <path d="m -51 -0.5 a 1.5 1.5 0 1 1 -3 0 1.5 1.5 0 1 1 3 0 z" transform="matrix(0.37629631,0,0,0.37629631,28.222223,9.7837039)" style="fill:#5bc548;fill-opacity:1;stroke:none"/>
  <path d="m -51 -0.5 a 1.5 1.5 0 1 1 -3 0 1.5 1.5 0 1 1 3 0 z" transform="matrix(0.37629631,0,0,0.37629631,29.351112,4.1392594)" style="fill:#5bc548;fill-opacity:1;stroke:none"/>
  <path transform="matrix(0.37629631,0,0,0.37629631,29.351112,5.2681483)" d="m -51 -0.5 a 1.5 1.5 0 1 1 -3 0 1.5 1.5 0 1 1 3 0 z" style="fill:#5bc548;fill-opacity:1;stroke:none"/>
  <path d="m -51 -0.5 a 1.5 1.5 0 1 1 -3 0 1.5 1.5 0 1 1 3 0 z" transform="matrix(0.37629631,0,0,0.37629631,29.351112,7.5259261)" style="fill:#5bc548;fill-opacity:1;stroke:none"/>
  <path transform="matrix(0.37629631,0,0,0.37629631,29.351112,6.3970372)" d="m -51 -0.5 a 1.5 1.5 0 1 1 -3 0 1.5 1.5 0 1 1 3 0 z" style="fill:#5bc548;fill-opacity:1;stroke:none"/>
  <path d="m -51 -0.5 a 1.5 1.5 0 1 1 -3 0 1.5 1.5 0 1 1 3 0 z" transform="matrix(0.37629631,0,0,0.37629631,29.351112,8.654815)" style="fill:#5bc548;fill-opacity:1;stroke:none"/>
  <path transform="matrix(0.37629631,0,0,0.37629631,29.351112,9.7837039)" d="m -51 -0.5 a 1.5 1.5 0 1 1 -3 0 1.5 1.5 0 1 1 3 0 z" style="fill:#5bc548;fill-opacity:1;stroke:none"/>
 </g>
</svg>
